src/shared/svg/sidebar/Air_Quality.svg

<svg width="20" height="20" viewBox="0 0 20 20" fill="none" xmlns="http://www.w3.org/2000/svg">
<g clip-path="url(#clip0_4870_104619)">
<path d="M0.9375 7.1875H13.9062C15.8867 7.1875 17.5 5.57422 17.5 3.59375C17.5 1.61328 15.8867 0 13.9062 0H12.5C11.9824 0 11.5625 0.419922 11.5625 0.9375C11.5625 1.45508 11.9844 1.875 12.5 1.875H13.9062C14.8535 1.875 15.625 2.64648 15.625 3.59375C15.625 4.54102 14.8555 5.3125 13.9062 5.3125H0.9375C0.419922 5.3125 0 5.73438 0 6.25C0 6.76562 0.419922 7.1875 0.9375 7.1875ZM6.40625 12.8125H0.9375C0.419922 12.8125 0 13.2344 0 13.75C0 14.2656 0.419922 14.6875 0.9375 14.6875H6.40625C7.35352 14.6875 8.125 15.459 8.125 16.4062C8.125 17.3535 7.35547 18.125 6.40625 18.125H5C4.48242 18.125 4.0625 18.5449 4.0625 19.0625C4.0625 19.5801 4.48438 20 5 20H6.40625C8.38672 20 10 18.3867 10 16.4062C10 14.4258 8.38672 12.8125 6.40625 12.8125ZM16.4062 9.0625H0.9375C0.419922 9.0625 0 9.48438 0 10C0 10.5156 0.419922 10.9375 0.9375 10.9375H16.4062C17.3535 10.9375 18.125 11.709 18.125 12.6562C18.125 13.6035 17.3555 14.375 16.4062 14.375H15C14.4824 14.375 14.0625 14.7949 14.0625 15.3125C14.0625 15.8301 14.4844 16.25 15 16.25H16.4062C18.3867 16.25 20 14.6367 20 12.6562C20 10.6758 18.3867 9.0625 16.4062 9.0625Z" fill="#8A8DBA"/>
</g>
<defs>
<clipPath id="clip0_4870_104619">
<rect width="20" height="20" fill="white"/>
</clipPath>
</defs>
</svg>

<svg width="20" height="20" viewBox="0 0 20 20" fill="none" xmlns="http://www.w3.org/2000/svg"><g clip-path="url(#a)"><path d="M.938 7.188h12.968A3.6 3.6 0 0 0 17.5 3.594 3.6 3.6 0 0 0 13.906 0H12.5a.938.938 0 0 0 0 1.875h1.406a1.72 1.72 0 0 1 0 3.438H.937A.939.939 0 0 0 0 6.25c0 .516.42.938.938.938Zm5.468 5.625H.938A.939.939 0 0 0 0 13.75c0 .516.42.938.938.938h5.468a1.72 1.72 0 0 1 1.719 1.718 1.72 1.72 0 0 1-1.719 1.719H5A.938.938 0 0 0 5 20h1.406A3.6 3.6 0 0 0 10 16.406a3.6 3.6 0 0 0-3.594-3.593Zm10-3.75H.938A.939.939 0 0 0 0 10c0 .516.42.938.938.938h15.468a1.72 1.72 0 0 1 1.719 1.718 1.72 1.72 0 0 1-1.719 1.719H15a.938.938 0 0 0 0 1.875h1.406A3.6 3.6 0 0 0 20 12.656a3.6 3.6 0 0 0-3.594-3.594Z" fill="#8A8DBA"/></g><defs><clipPath id="a"><path fill="#fff" d="M0 0h20v20H0z"/></clipPath></defs></svg>
